X:1
T:Eine Kleine Nachtmusik I.  Allegro 
T:K. 525
T:Wolfgang Amadeus Mozart
T:Public Domain
T:Public Domain
T:Public Domain
T:Public Domain
T:Public Domain
T:Public Domain
T:Public Domain
T:Public Domain
T:Public Domain
T:Public Domain
T:Public Domain
T:Public Domain
T:Public Domain
Z:Public Domain
%%score 1 ( 2 3 ) ( 4 5 ) 6
L:1/8
Q:1/4=140
M:4/4
K:G
V:1 bass nm="Tenor Trombone" snm="T. Tbn."
V:2 bass nm="Tenor Trombone" snm="T. Tbn."
V:3 bass 
V:4 bass nm="Tenor Trombone" snm="T. Tbn."
V:5 bass 
V:6 bass nm="Bass Trombone" snm="B. Tbn."
V:1
"^Allegro" [B,G]2 z D G2 z D | GDGB d2 z2 | c2 z A c2 z A | cAFA D2 z2 | [B,G] z G3 (BA)G | %5
 (TGF) F3 (Ac).F | (AG) G3 (BA)G | (TGF) F3 (Ac).F | .G.G{G} (FE/F/) .G.G{B} (AG/A/) | %9
 .B.B{d} (cB/c/) d2 z2 |!p! (D4 E4) |{D} C2 C2{C} B,2 B,2 |{B,} A,2 A,2 (G,F,).E,.F, | %13
 G, z A, z B, z z2 | (D4 E4) | (DC).C.C (CB,).B,.B, | (B,A,).A,.A, (G,F,E,F,) | %17
 G,4- G,!p!(TG,/F,/4G,/4 A,F,) | B,4- B,!p!(TB,/A,/4B,/4 CA,) | D4 !//!E2 !//!F2 | %20
 !//!G2 !//!A2 !//!B2 !//!_d2 | d3 A (_d>A) (d>A) | d3 A (_d>A) (d>A) | %23
 d [Fd]2 [Fd]2 [Fd]2 ([Fd-] | [Ed]) [Ed]2 [Ed]2 [Ed]2 [Ed] | [E_d]A=dA _dA=dA | _dA,A,A, A,2 z2 | %27
!p!"^A" (A3 (3G/F/E/ D) z B z | G z E z A z z2 | (F3 (3E/D/_D/ B,) z G z | (F4 E2) z2 | %31
 z .A.A.A .A.A.A.A | .A.A.A.A .A.AB_d | _d=d z B (BA) z _D | D2 z .A (d_dBA) | %35
 (TBA) z .A .A.A.A.A | (TBA) z A d_dBA | (TBA) z .A .A.A.A.A | (TBA) z2!f! B3 (3(A/G/F/ | %39
 G2) z2 A3 (3(G/F/E/ | F2) z2 (B_d/=d/ _d).B | (BA).F.A (AG).F.E |"^B" D2 z!p! A (d_dBA) | %43
 (TBA) z .A .A.A.A.A | (TBA) z A d_dBA | (TBA) z .A .A.A.A.A | (TBA) z2!f! B3 (3(A/G/F/ | %47
 G2) z2 A3 (3(G/F/E/ | F2) z2 (B_d/=d/ _d).B | (BA).F.A (AG).F.E | DA,B,_D .=D.D (TED/E/ | %51
 F)_D=DE FF (TGF/G/ | A)A (T_B_A/B/ =B2) z2 |!p! (B,3 E) (D_DB,A,) | D z F z D z z2 | %55
!f! D2 z A, D2 z A, | DA,DF A2 z2 | A2 z F A2 z F | AF_EF B,2 z2 | z2 z!p! G (cBAG) | %60
 (TAG) z .G .G.G.G.G | (TAG) z G (cBAG) | (TAG) z G GGGG | (TAG) z G (cBAG) | (TA_A) z A AAAA | %65
 (TBA) z A (c_BAG) | (TGF) z F FFFF | (TAG) z _E (G=FED) | (TD_D) z D DDDD | %69
 (TED) z!f! (D, E,F,G,A, | C_B,) z (F, G,A,B,_D | ED) z!p! (D EFGA | _B2 =B2 c2 _d2) | d8- | %74
 d4 TF3 E/F/ |!f!"^C" G2 z D G2 z D | GDGB d2 z2 | c2 z A c2 z A | cAFA D2 z2 | [B,G] z G3 (BA)G | %80
 (TGF) F3 (Ac).F | (AG) G3 (BA)G | (TGF) F3 (Ac).F | .G.G{G} (FE/F/) .G.G{B} (AG/A/) | %84
 .B.B{d} (cB/c/) d2 z2 |!p! (D4 E4) |{D} C2 C2{C} B,2 B,2 |{B,} A,2 A,2 (G,F,).E,.F, | %88
 G, z A, z B, z z2 | (D4 E4) | (DC).C.C (CB,).B,.B, | (B,A,).A,.A, (G,F,E,F,) | %92
 G,4- G,!p!(TG,/F,/4G,/4 A,F,) | B,4- B,!p!(TB,/A,/4B,/4 CA,) | D4 !//!E2 !//!F2 | %95
 !//!G2 !//!A2 !//!B2 !//!_d2 | d3 A (_d>A) (d>A) | d3 A (_d>A) (d>A) | .d.A._d.A .=d.A._d.A | %99
 d DDD D2 z2 |"^D"!p! (D3 (3C/B,/A,/ G,) z E z | C z A, z D z z2 | (B3 (3A/G/F/ E) z c z | %103
 (B4 A2) z2 | z d.d.d dddd | d.d.dd (dcAF) | (FG) z .E (ED) z .F, | G,2 z .D (GFED) | %108
 (TED) z .D .D.D.D.D | (TED) z .D (GFED) | (TED) z .D .D.D.D.D | (TED) z2!f! E3 (3(D/C/B,/ | %112
 C2) z2 D3 (3(C/B,/A,/ | B,2) z2 (EF/G/ F).E | (ED).B,.D (DC).B,.A, | G,2 z!p! .D (GFED) | %116
 (TED) z .D .D.D.D.D | (TED) z .D (GFED) | (TED) z .D .D.D.D.D | (TED) z2!f! e3 (3(d/c/B/ | %120
 c2) z2 d3 (3(c/B/A/ | B2) z2 (EF/G/) F.E | .D.G.B.d (dc).BA |"^E" GD,E,F, G,G, (TA,G,/A,/ | %124
 B,)F,G,A, B,B, (TCB,/C/ | D)D T_E_D/E/ =E2 z2 |!p! (E,3 A,) (G,F,E,D,) | (D_DCB, =D_DCB,) | %128
 (E,3 A,) G,F,E,D, | (DEFG DEFG) | A2 z2!f! [Dd]2 z2 | [B,G]2 z D B,G,B,D | GDGB d2 [A,F]2 | %133
 [B,G]2 z D B,G,B,D | GDGB d2 [A,F]2 | [B,G]2 z2 [B,G]2 z2 | %136
 [D,B,G]2 [G,,G,]>[G,,G,] [G,,G,]2 z2 |] %137
V:2
 [D,B,]2 z D G2 z D | GDGB d2 z2 | c2 z A c2 z A | cAFA D2 z2 | %4
 [B,D]/[B,D]/[B,D]/[B,D]/ !//!D2 !//!D4 | !//![CD]4 !//![CD]4 | !//!D4 !//!D4 | %7
 !//![CD]4 !//![CD]4 | [B,,D,]2 CC DD (CB,/A,/) | G,G,F,F, G,2 z2 |!p! (B,4 C4) | %11
{B,} A,2 A,2{A,} G,2 G,2 | E,2 E,2 C,2 A,,2 | D, z F, z G, z z2 | (B,4 C4) | %15
 (B,A,).A,.A, (A,G,).G,.G, | E,2 E,E, C,2 C,C, | B,,4- B,,!p!(TB,,/A,,/4B,,/4 C,A,,) | %18
 G,4- G,!p!(TG,/F,/4G,/4 A,F,) | !//!B,4 !//!C4 | !//!B,2 !//!D4 !//!G2 | !//!F4 !//!G4 | %22
 !//!F4 !//!G4 | [DF] [DF]2 [DF]2 [DF]2 ([D-F] | [DE]) [DE]2 [DE]2 [DE]2 [DE] | E2 F2 E2 F2 | %26
 [_DE]A,A,A, A,2 z2 |!p! (A,3 (3G,/F,/E,/ D,) z B, z | G, z E, z A, z z2 | %29
 (F,3 (3E,/D,/_D,/ B,,) z G, z | (F,4 E,2) z2 | (A,3 (3G,/F,/E,/ D,) z B, z | G, z E, z A, z G, z | %33
 (G,F,) z .G (GF) z G, | F,F,G,G, A,A,F,F, | E,E,F,F, G,G,E,E, | F,F,G,G, A,A,F,F, | %37
 E,E,F,F, G,G,E,E, | F,2 z2!f! ([B,F]4 | E2) z2 ([A,E]4 | D).F.G.A (GA/B/ A).G | %41
 (GF).D.F (FE).D._D | D!p!F,G,G, A,A,F,F, | E,E,F,F, G,G,E,E, | F,F,G,G, A,A,F,F, | %45
 E,E,F,F, G,G,E,E, | F,2 z2!f! ([B,F]4 | E2) z2 ([A,E]4 | D).F.G.A (GA/B/ A).G | %49
 (GF).D.F (FE).D._D | DA,B,_D .=D.D (TED/E/ | F)_D=DE FF (TGF/G/ | A)A (T_B_A/B/ =B2) z2 | %53
!p! (G,8 | F,) z A, z F, z z2 |!f! D2 z A, D2 z A, | DA,DF A2 z2 | A2 z F A2 z F | AF_EF B,2 z2 | %59
!p! E,E,=F,F, G,G,E,E, | D,D,E,E, =F,F,D,D, | E,E,=F,F, G,G,E,E, | D,D,E,E, =F,F,D,D, | %63
 E,E,=F,F, G,G,E,E, | D,D,E,E, =F,F,D,D, | C,C,D,D, E,E,C,C, | C,C,D,D, _E,E,C,C, | %67
 _B,,B,,A,,A,, B,,B,,A,A, | _B,B,A,A, B,B,A,G, | F,2 z!f! (D, E,F,G,A, | C_B,) z (F, G,A,B,_D | %71
 ED) z!p! (D, E,F,G,A, | _B,2 =B,2 C2 _D2) | .D.D(DE) .C.C(CD) | .B,.B,(B,D) (DC).B,.A, | %75
!f! G,2 z D G2 z D | GDGB d2 z2 | c2 z A c2 z A | cAFA D2 z2 | !//!D4 !//!D4 | %80
 !//![CD]4 !//![CD]4 | !//!D4 !//!D4 | !//![CD]4 !//![CD]4 | [B,D]2 CC DD (CB,/A,/) | %84
 G,G,F,F, G,2 z2 |!p! (B,4 C4) |{B,} A,2 A,2{A,} G,2 G,2 | E,2 E,2 C,2 A,,2 | D, z F, z G, z z2 | %89
 (B,4 C4) | (B,A,).A,.A, (A,G,).G,.G, | E,2 E,E, C,2 C,C, | B,,4- B,,!p!(TB,,/A,,/4B,,/4 C,A,,) | %93
 G,4- G,!p!(TG,/F,/4G,/4 A,F,) | !//!B,4 !//!C4 | !//!B,2 !//!D4 !//!G2 | !//!F4 !//!G4 | %97
 !//!F4 !//!G4 | !//!F2 !//!G2 !//!F2 !//!G2 | F D,D,D, D,2 z2 | %100
!p! (D,3 (3C,/B,,/A,,/ G,,) z E, z | C, z A,, z D, z z2 | (B,3 (3A,/G,/F,/ E,) z C z | %103
 (B,4 A,2) z2 | (D3 (3C/B,/A,/ G,) z E z | C z A, z D2 z C | (CB,) z .C (CB,) z .C, | %107
 B,,B,,C,C, D,D,B,,B,, | A,,A,,B,,B,, C,C,A,,A,, | B,,B,,C,C, D,D,B,,B,, | %110
 A,,A,,B,,B,, C,C,A,,A,, | B,,2 z2!f! ([E,B,]4 | A,2) z2 ([D,A,]4 | G,).B,.C.D (CD/E/ D).C | %114
 (CB,).G,.B, (B,A,).G,.F, | G,!p!B,,C,C, D,D,B,,B,, | A,,A,,B,,B,, C,C,A,,A,, | B,,B,CC DDB,B, | %118
 A,A,B,B, CCA,A, | B,2 z2!f! (B4 | A2) z2 (A4 | G).B,.C.D (CD/E/) .D.C | .B,.D.G.B (BA).G.F | %123
 GD,E,F, G,G, (TA,G,/A,/ | B,)F,G,A, B,B, (TCB,/C/ | D)D T_E_D/E/ =E2 z2 |!p! (C,8 | B,,2) z2 z4 | %128
 (C,8 | B,,2) z2 B,2 z2 | E2 z2!f! [DF]2 z2 | !//!D,4 !//!D,4 | !//!D,4 !//!D,2 !//![C,D,]2 | %133
 !//!D,4 !//!D,4 | !//!D,4 !//!D,2 !//![C,D,]2 | [B,,D,]2 z2 [D,B,]2 z2 | %136
 [D,B,G]2 [G,,G,]>[G,,G,] [G,,G,]2 z2 |] %137
V:3
 x8 | x8 | x8 | x8 | x2 B,2 B,4 | x8 | B,4 B,4 | x8 | x8 | x8 | x8 | x8 | x8 | x8 | x8 | x8 | x8 | %17
 x8 | x8 | x8 | x8 | x8 | x8 | x8 | x8 | !//!_D2 !//!=D2 !//!_D2 !//!=D2 | x8 | x8 | x8 | x8 | x8 | %31
 x8 | x8 | x8 | x8 | x8 | x8 | x8 | x8 | x8 | x8 | x8 | x8 | x8 | x8 | x8 | x8 | x8 | x8 | x8 | %50
 x8 | x8 | x8 | x8 | x8 | x8 | x8 | x8 | x8 | x8 | x8 | x8 | x8 | x8 | x8 | x8 | x8 | x8 | x8 | %69
 x8 | x8 | x8 | x8 | x8 | x8 | x8 | x8 | x8 | x8 | B,4 B,4 | x8 | B,4 B,4 | x8 | x8 | x8 | x8 | %86
 x8 | x8 | x8 | x8 | x8 | x8 | x8 | x8 | x8 | x8 | x8 | x8 | x8 | x8 | x8 | x8 | x8 | x8 | x8 | %105
 x8 | x8 | x8 | x8 | x8 | x8 | x8 | x8 | x8 | x8 | x8 | x8 | x8 | x8 | x8 | x8 | x8 | x8 | x8 | %124
 x8 | x8 | x8 | x8 | x8 | x8 | x8 | B,,4 B,,4 | B,,4 B,,2 x2 | B,,4 B,,4 | B,,4 B,,2 x2 | x8 | %136
 x8 |] %137
V:4
 G,2 z D, G,2 z D, | G,D,G,B, D2 z2 | C2 z A, C2 z A, | CA,F,A, D,2 z2 | G,G,G,G, G,G,G,G, | %5
 A,A,A,A, (A,C)(F,A,) | G,G,G,G, G,G,G,G, | A,A,A,A, (A,C)(F,A,) | !//!D,4 !//!D,4 | %9
 !//!D,4 D,2 z2 | z8 |!p! (F,,4 G,,4) | C,2 C,2 A,,2 F,,2 | D,, z D, z D,2 z2 | z8 | (F,4 G,4) | %16
 C,2 C,C, A,,2 A,,A,, | G,,G,,G,,G,,!p! G,,G,,G,,G,, | G,,G,,G,,G,,!p! G,,G,,G,,G,, | %19
 G,,G,G,G, G,G,A,A, | G,G,F,F, G,G,E,E, | A,4 A,4 | A,4 A,4 | F,G,A,G, F,G,A,F, | %24
 B,A,G,A, B,A,_A,B, | A,A,A,A, A,A,A,A, | A,A,,A,,A,, A,,2 z2 | z4 z2!p! F, z | %28
 B,, z G, z E, z _D, z | z2 (E,2 D,) z E, z | (D,4 _D,2) z2 | z2 _D,2 =D, z F, z | %32
 B,, z G,, z E,, z E, z | (E,D,) z2 z4 | D,D,E,E, F,F,D,D, | _D,D,=D,D, E,E,_D,D, | %36
 D,D,E,E, F,F,D,D, | _D,D,=D,D, E,E,_D,D, |!f! D,D,F,E, _E,B,,_D,E, | E,G,E,D, _D,A,,B,,D, | %40
 D,DDD DDDD | (DA,).A,.A, A,A,A,G, | F,!p!D,E,E, F,F,D,D, | _D,D,=D,D, E,E,_D,D, | %44
 D,D,E,E, F,F,D,D, | _D,D,=D,D, E,E,_D,D, |!f! D,D,F,E, _E,B,,_D,E, | E,G,E,D, _D,A,,B,,D, | %48
 D,DDD DDDD | (DA,).A,.A, A,A,A,G, | F,A,,B,,_D, =D,D,E,E, | F,_D,=D,E, F,F,G,G, | %52
 A,A,_B,B, =B,2 z2 |!p! (E,6 D,_D,) | D, z D, z D, z z2 |!f! D,2 z A,, D,2 z A,, | %56
 D,A,,D,F, A,2 z2 | A,2 z F, A,2 z F, | A,F,_E,F, B,,2 z2 |!p! C,C,D,D, E,E,C,C, | %60
 B,,B,,C,C, D,D,B,,B,, | C,C,D,D, E,E,C,C, | B,,B,,C,C, D,D,B,,B,, | C,C,D,D, E,E,C,C, | %64
 B,,B,,C,C, D,D,B,,B,, | A,,A,,B,,B,, C,C,A,,A,, | A,,A,,_B,,B,, C,C,A,,A,, | %67
 G,,G,,F,,F,, G,,G,,F,F, | G,G,F,F, G,G,,F,,G,, | A,,2 z!f! (D,, E,,F,,G,,A,, | %70
 C,_B,,) z (F,, G,,A,,B,,_D, | E,D,) z2 z4 | z8 |!p! .B,.B,(B,C) .A,.A,(A,B,) | %74
 .G,.G,(G,B,) (B,A,).G,.D, |!f! G,2 z D, G,2 z D, | G,D,G,B, D2 z2 | C2 z A, C2 z A, | %78
 CA,F,A, D,2 z2 | G,G,G,G, G,G,G,G, | A,A,A,A, (A,C)(F,A,) | G,G,G,G, G,G,G,G, | %82
 A,A,A,A, (A,C)(F,A,) | !//!D,4 !//!D,4 | !//!D,4 D,2 z2 | z8 |!p! (F,,4 G,,4) | %87
 C,2 C,2 A,,2 F,,2 | D,, z D, z D,2 z2 | z8 | (F,4 G,4) | C,2 C,C, A,,2 A,,A,, | %92
 G,,G,,G,,G,,!p! G,,G,,G,,G,, | G,,G,,G,,G,,!p! G,,G,,G,,G,, | G,,G,G,G, G,G,A,A, | %95
 G,G,F,F, G,G,E,E, | A,4 A,4 | A,4 A,4 | A,2 A,2 A,2 A,2 | [D,A,] D,D,D, D,2 z2 | z4 z2!p! B,, z | %101
 E,, z C, z A,, z F,, z | z2 (A,2 G,) z A, z | (G,4 F,2) z2 | z2 (F,2 G,) z B, z | %105
 E, z C, z A,,2 z A, | (A,G,) z2 z4 | G,,G,,A,,A,, B,,B,,G,,G,, | F,,F,,G,,G,, A,,A,,F,,F,, | %109
 G,,G,,A,,A,, B,,B,,G,,G,, | F,,F,,G,,G,, A,,A,,F,,F,, |!f! G,,G,B,A, _A,E,F,A, | %112
 A,CA,G, F,D,E,F, | G,G,G,G, G,G,G,G, | (G,D,).D,.D, D,D,D,C, | B,,!p!G,,A,,A,, B,,B,,G,,G,, | %116
 F,,F,,G,,G,, A,,A,,F,,F,, | G,,G,A,A, B,B,G,G, | F,F,G,G, A,A,F,F, |!f! G,G,B,A, _A,E,F,A, | %120
 A,CA,G, F,D,E,F, | G,G,G,G, G,G,G,G, | G,B,DD DDDC | B,D,E,F, G,G,A,A, | B, F,,G,,A,, B,,B,,C,C, | %125
 D,D,_E,E, =E,2 z2 |!p! (A,,6 G,,F,,) | G,,2 z2 z4 | (A,,6 G,,F,,) | G,,2 z2 G,2 z2 | %130
 E,2 z2!f! [D,A,]2 z2 | !//!G,,4 !//!G,,4 | !//!G,,4 !//!G,,2 !//!A,,2 | !//!G,,4 !//!G,,4 | %134
 !//!G,,4 !//!G,,2 !//!A,,2 | G,,B,,D,G, B,G,DB, | G,2 G,,>G,, G,,2 z2 |] %137
V:5
 x8 | x8 | x8 | x8 | x8 | x8 | x8 | x8 | x8 | x8 | x8 | x8 | x8 | x8 | x8 | x8 | x8 | x8 | x8 | %19
 x8 | x8 | !//!D,4 !//!E,4 | !//!D,4 !//!E,4 | x8 | x8 | x8 | x8 | x8 | x8 | x8 | x8 | x8 | x8 | %33
 x8 | x8 | x8 | x8 | x8 | x8 | x8 | x8 | x8 | x8 | x8 | x8 | x8 | x8 | x8 | x8 | x8 | x8 | x8 | %52
 x8 | x8 | x8 | x8 | x8 | x8 | x8 | x8 | x8 | x8 | x8 | x8 | x8 | x8 | x8 | x8 | x8 | x8 | x8 | %71
 x8 | x8 | x8 | x8 | x8 | x8 | x8 | x8 | x8 | x8 | x8 | x8 | x8 | x8 | x8 | x8 | x8 | x8 | x8 | %90
 x8 | x8 | x8 | x8 | x8 | x8 | !//!D,4 !//!E,4 | !//!D,4 !//!E,4 | %98
 !//!D,2 !//!E,2 !//!D,2 !//!E,2 | x8 | x8 | x8 | x8 | x8 | x8 | x8 | x8 | x8 | x8 | x8 | x8 | x8 | %112
 x8 | x8 | x8 | x8 | x8 | x8 | x8 | x8 | x8 | x8 | x8 | x8 | x8 | x8 | x8 | x8 | x8 | x8 | x8 | %131
 x8 | x8 | x8 | x8 | x8 | x8 |] %137
V:6
 G,,2 z D,, G,,2 z D,, | G,,D,,G,,B,, D,2 z2 | C,2 z A,, C,2 z A,, | C,A,,F,,A,, D,,2 z2 | %4
 G,,G,,G,,G,, G,,G,,G,,G,, | G,,G,,G,,G,, G,,G,,G,,G,, | G,,G,,G,,G,, G,,G,,G,,G,, | %7
 G,,G,,G,,G,, G,,G,,G,,G,, | G,,G,,A,,A,, B,,B,,F,,F,, | G,,G,,A,,A,, B,,2 z2 | z8 | %11
!p! (D,,4 E,,4) | C,,2 C,,2 D,,2 D,,2 | B,,, z D,, z G,,2 z2 | z8 | (D,,4 E,,4) | %16
 C,,2 C,,2 D,,2 D,,2 | G,,G,,G,,G,,!p! G,,G,,G,,G,, | G,,G,,G,,G,,!p! G,,G,,G,,G,, | %19
 G,,G,,G,,G,, G,,G,,G,,G,, | G,,G,,F,,F,, G,,G,,E,,E,, | D,,8 | D,,8 | D,,E,,F,,E,, D,,E,,F,,D,, | %24
 G,,A,,B,,A,, G,,A,,B,,_A,, | A,,A,,A,,A,, A,,A,,A,,A,, | A,,A,,,A,,,A,,, A,,,2 z2 | %27
 z4 z2!p! _E,, z | E,, z D,, z _D,, z A,,, z | z2 (_B,,,2 =B,,,) z G,,, z | A,,,2 A,,3 _A,,G,,E,, | %31
 D,, z E,, z F,, z _E,, z | E,, z D,, z _D,, z A,,, z | B,,, z G,, z A,, z A,,, z | D,,2 z2 z4 | %35
 A,,,2 z2 z4 | D,,2 z2 z4 | A,,,2 z2 z4 | z!f! D,,F,,E,, _E,,B,,,_D,,E,, | %39
 E,,G,,E,,D,, _D,,A,,,B,,,D,, | D,,D,,E,,F,, G,,G,,G,,G,, | A,,A,,A,,A,, A,,,A,,,A,,,A,,, | %42
 D,,2 z2 z4 |!p! A,,,2 z2 z4 | D,,2 z2 z4 | A,,,2 z2 z4 | z!f! D,,F,,E,, _E,,B,,,_D,,E,, | %47
 E,,G,,E,,D,, _D,,A,,,B,,,D,, | D,,D,,E,,F,, G,,G,,G,,G,, | A,,A,,A,,A,, A,,,A,,,A,,,A,,, | %50
 D,,A,,,B,,,_D,, =D,,D,,E,,E,, | F,,_D,,=D,,E,, F,,F,,G,,G,, | A,,A,,_B,,B,, =B,,2 z2 | %53
!p! (G,,4 A,,4) | D,, z D,, z D,, z z2 |!f! D,,2 z A,,, D,,2 z A,,, | D,,A,,,D,,F,, A,,2 z2 | %57
 A,,2 z F,, A,,2 z F,, | A,,F,,_E,,F,, B,,,2 z2 |!p! C,,2 z2 z4 | G,,,2 z2 z4 | C,,2 z2 z4 | %62
 G,,,2 z2 z4 | C,,2 z2 z4 | E,,2 z2 z4 | A,,,2 z2 z4 | D,,2 z2 z4 | _E,,8- | E,,8 | %69
 D,,2 z!f! (D,, E,,F,,G,,A,, | C,_B,,) z (F,, G,,A,,B,,_D, | E,D,) z2 z4 | z8 | z8 |!p! D,,8 | %75
!f! G,,2 z D,, G,,2 z D,, | G,,D,,G,,B,, D,2 z2 | C,2 z A,, C,2 z A,, | C,A,,F,,A,, D,,2 z2 | %79
 G,,G,,G,,G,, G,,G,,G,,G,, | G,,G,,G,,G,, G,,G,,G,,G,, | G,,G,,G,,G,, G,,G,,G,,G,, | %82
 G,,G,,G,,G,, G,,G,,G,,G,, | G,,G,,A,,A,, B,,B,,F,,F,, | G,,G,,A,,A,, B,,2 z2 | z8 | %86
!p! (D,,4 E,,4) | C,,2 C,,2 D,,2 D,,2 | B,,, z D,, z G,,2 z2 | z8 | (D,,4 E,,4) | %91
 C,,2 C,,2 D,,2 D,,2 | G,,G,,G,,G,,!p! G,,G,,G,,G,, | G,,G,,G,,G,,!p! G,,G,,G,,G,, | %94
 G,,G,,G,,G,, G,,G,,G,,G,, | G,,G,,F,,F,, G,,G,,E,,E,, | D,,8 | D,,8 | D,,D,,D,,D,, D,,D,,D,,D,, | %99
 D,,D,,D,,D,, D,,2 z2 | z4 z2!p! _A,, z | A,, z G,, z F,, z D,, z | z2 (_E,,2 =E,,) z C,, z | %103
 D,,2 (D,3 _D,C,A,,) | G,, z A,, z B,, z _A,, z | A,, z G,, z F,, z D,, z | %106
 E,, z C,, z D,, z D,, z | G,,,2 z2 z4 | D,,2 z2 z4 | G,,,2 z2 z4 | D,,2 z2 z4 | %111
 z!f! G,,B,,A,, _A,,E,,F,,A,, | A,,C,A,,G,, F,,D,,E,,F,, | .G,,.G,,.A,,.B,, C,C,C,C, | %114
 D,D,D,D, D,,D,,D,,D,, | G,,2 z2 z4 |!p! D,,2 z2 z4 | G,,2 z2 z4 | D,,2 z2 z4 | %119
 z!f! G,,B,,A,, _A,,E,,F,,A,, | A,,C,A,,G,, F,,D,,E,,F,, | .G,,.G,,.A,,.B,, C,C,C,C, | %122
 D,D,D,D, D,,D,,D,,D,, | G,,D,,E,,F,, G,,G,,A,,A,, | B,,F,,G,,A,, B,,B,,C,C, | D,D,_E,E, =E,2 z2 | %126
!p! (C,,4 D,,4) | G,,,2 z2 z4 | (C,,4 D,,4) | G,,,2 z2 z4 | C,,2 z2!f! D,,2 z2 | %131
 G,,,G,,,G,,,G,,, G,,,G,,,G,,,G,,, | G,,,G,,,G,,,G,,, G,,,G,,,G,,,G,,, | %133
 G,,,G,,,G,,,G,,, G,,,G,,,G,,,G,,, | G,,,G,,,G,,,G,,, G,,,G,,,G,,,G,,, | %135
 G,,,B,,,D,,G,, B,,G,,D,B,, | G,,2 G,,,>G,,, G,,,2 z2 |] %137

